X:1
T:16) Tomás Luis de Victoria O magnum mysterium
%%score [ 1 2 3 4 ]
L:1/8
Q:1/4=160
M:4/2
K:Dmin
V:1 treble nm="Soprano" snm="S"
V:2 alto nm="Alto" snm="A"
V:3 treble-8 nm="Tenor" snm="T"
V:4 bass nm="Bajo" snm="B"
V:1
 A16 | D8 A8- | A4 A4 B4 B4 | A8 z4 d4 | B4 c4 d6 d2 | d4 A4 B4 (A4- | A2 G2 F2 E2 F2 G2 A2 F2 | %7
w: O|ma- gnum|* my- ste- ri-|um et|ad- mi- ra- bi-|le sa- cra- men-||
 G2 F2 F2 ED E8- | E8) D8 | ^F16 | G8 (=F6 G2 | A4) (B6 A2 G4- | G4 ^F4) (G4 =F2 E2 | D4) E4 F8 | %14
w: |* tum.|O|ma- gnum *|* my- * *|* * ste- * *|* ri- um|
 z4 d4 B4 c4 | d6 d2 d4 B4 | G4 A4 B6 B2 | B4 A6 G2 (G4- | G4 ^F4) G4 z4 | z16 | z4 B4 A6 F2 | %21
w: et ad- mi-|ra- bi- le, et|ad- mi- ra- bi-|le sa- cra- men-|* * tum,||ut a- ni-|
 G4 A4 B4 G4 | B6 B2 B4 B4 | A8 A8 | ^F4 A4 A6 A2 | A4 =B4 c8 | (B6 AG A8 | B8) A8 | z16 | %29
w: ma- li- a vi-|de- rent Do- mi-|num na-|tum, vi- de- rent|Do- mi- num|na- * * *|* tum||
 z4 D4 G8 | F4 D4 (E4 ^F4) | (G6 A2 B4) B4 | A8 z8 | z16 | z4 G4 c8 | B4 G4 (A4 =B4) | %36
w: ja- cen-|tem in proe- *|se- * * pi-|o,||ja- cen-|tem in proe- *|
 (c6 B2 A2 G2 G4- | G4 ^F2 E2 F4) F4 | G8 z8 | ^F12 F4 | ^F8 G8 | (^F6 G2 A4 B4- | %42
w: se- * * * *|* * * * pi-|o.|O be-|a- ta|vir- * * *|
 B2 A2 A6 G2 G4) | A4 ^F8 F4 | G6 G2 G8 | z4 (G6 A2 B2 G2 | A4) d4 c8 | B4 d4 c4 A4 | %48
w: |go cu- jus|vis- ce- ra|me- * * *|* ru- e-|runt por- ta- re|
 (B6 A2 G2 F2 F2 ED | E4) E4 D4 A4- | A4 F8 (B4- | B2 A2 G8 ^F4) | %52
w: Do- * * * * * *|* mi- num Je-|* sum Chri-||
[M:3/2][Q:1/4=240][Q:1/4=240][Q:1/4=240][Q:1/4=240] G8 B4 | A8 ^F4 | G6 (F2 G2 A2) | B4 A8 | %56
w: stum Al-|le- lu-|ia, Al- * *|le- lu-|
 B8 G4 | F8 D4 | E6 (D2 E2 F2) | G8 ^F4 | G12 | z8 c4 | (B6 A2 B2 G2 | A4) (F2 G2 A2 B2 | %64
w: ia, Al-|le- lu-|ia, Al- * *|le- lu-|ia,|Al-|le- * * *|* lu- * * *|
 c4) c4 c4 | B4 d8 |[M:4/2][Q:1/4=160][Q:1/4=160][Q:1/4=160][Q:1/4=160] d16 | z4 d4 (d2 c2 B2 A2 | %68
w: * ia, Al-|le- lu-|ia,|Al- le- * * *|
 G4) (c6 B2 A2 G2 | ^F4 G8 F4) | G16- | G16- | G16- | G16 |] %74
w: * lu- * * *||ia.||||
V:2
 z16 | z8 D8- | D8 G,8 | D12 D4 | _E4 E4 D8 | z4 D4 B,4 C4 | D6 D2 D4 A,4 | B,4 (D8 ^C2 =B,2 | %8
w: |O|* ma-|gnum my-|ste- ri- um|et ad- mi-|ra- bi- le sa-|cra- men- * *|
 ^C8) D8 | D16 | D8 (D6 E2 | F4) F,4 (G,6 A,2 | B,4) A,4 G,4 D4 | D4 C4 A,6 A,2 | %14
w: * tum.|O|ma- gnum *|* my- ste- *|* ri- um et|ad- mi- ra- bi-|
 A,4 B,6 A,2 (G,4- | G,4 ^F,4) G,4 G4 | D4 F4 F6 F2 | F8 D4 _E4 | D8 D8- | D8 z8 | z4 G4 F6 D2 | %21
w: le sa- cra- men-|* * tum, et|ad- mi- ra- bi-|le sa- cra-|men- tum,||ut a- ni-|
 E4 ^F4 G4 D4 | D6 D2 D4 E4 | F8 E8 | D4 F4 F6 F2 | F4 F4 G4 (A4- | A2 G2 G8 ^F4) | G4 D4 (F6 EF | %28
w: ma- li- a vi-|de- rent Do- mi-|num na-|tum, vi- de- rent|Do- mi- num na-||tum ja- cen- * *|
 G4 F2 E2 D4) A,4 | z12 G,4 | D8 C4 A,4 | (B,4 C4) (D2 C2 D2 E2 | F6 EF G4) (F2 E2) | D8 z4 A,4 | %34
w: * * * * tem|ja-|cen- tem in|proe- * se- * * *|* * * * pi- *|o, ja-|
 D8 C4 A,4 | (B,2 C2 D2 E2 F8) | (G6 F2 _E2 D2 E4 | D12) D4 | =B,8 z8 | D12 D4 | D8 D8 | D16- | %42
w: cen- tem in|proe- * * * *|se- * * * *|* pi-|o.|O be-|a- ta|vir-|
 D16 | D8 z4 D4- | D4 D4 _E6 E2 | D4 (G,2 A,2 B,2 C2 D2 E2 | F4) F4 F8 | D4 D4 E4 ^F4 | %48
w: |go cu-|* jus vis- ce-|ra me- * * * * *|* ru- e-|runt por- ta- re|
 (G6 F2 E2 D2 D4-) | D4 ^C4 D4 (F4- | F2 E2 D2 C2 D8 | B,4) C4 D8 |[M:3/2] D8 G4 | F8 D4 | %54
w: Do- * * * *|* mi- num Je-||* sum Chri-|stum Al-|le- lu-|
 E6 D2 E2 F2 | G8 ^F4 | G8 D4 | D8 A,4 | C8 C4 | D4 D8 | D8 B,4 | G,8 ^F,4 | G,8 G4 | F8 D4 | %64
w: ia, Al- * *|le- lu-|ia, Al-|le- lu-|ia, Al-|le- lu-|ia, Al-|le- lu-|ia, Al-|le- lu-|
 E6 (D2 E2 F2) | G8 ^F4 |[M:4/2] G8 z4 D4- | D2 (C2 B,2 A,2 G,4) (G4- | G2 F2 _E2 D2 C4 E4) | %69
w: ia, Al- * *|le- lu-|ia, Al-|* le- * * * lu-||
 D8 z4 A,4 | (B,6 C2 D4) (_E4- | E4 D4 C6 D2 | _E8) D8- | D16 |] %74
w: ia, Al-|le- * * lu-||* ia.||
V:3
 z16 | z16 | z16 | z16 | z16 | z16 | z16 | z8 A8- | A8 D8 | A12 A4 | B4 B4 A8 | z4 d4 B4 c4 | %12
w: |||||||O|* ma-|gnum my-|ste- ri- um|et ad- mi-|
 d6 d2 d4 A4 | B4 (A6 G2 F2 E2 | F8 G8 | A8) B4 d4 | B4 c4 d6 d2 | d4 c4 (B4 c4) | A8 G4 B4 | %19
w: ra- bi- le sa-|cra- men- * * *||* tum et|ad- mi- ra- bi-|le sa- cra- *|men- tum, ut|
 A6 F2 G4 A4 | B4 G4 d6 d2 | c4 (B2 A2) G4 B4 | B6 B2 B4 B4 | c4 (d8 ^c4) | d4 D4 d6 d2 | %25
w: a- ni- ma- li-|a, ut a- ni-|ma- li- * a vi-|de- rent Do- mi-|num na- *|tum, vi- de- rent|
 d4 d4 c8 | _e8 d8 | z4 G4 d8 | c4 A4 (B4 c4) | (d2 c2 B2 A2 G2 A2 B2 G2 | A12) A4 | G8 z4 G4 | %32
w: Do- mi- num|na- tum|ja- cen-|tem in proe- *|se- * * * * * * *|* pi-|o, ja-|
 d8 c4 A4 | B4 (A6 G2 F2 E2 | F4 G8) ^F4 | G4 B4 c4 d4 | (_e6 d2 c2 B2 c4 | B4 A2 G2 A4) A4 | %38
w: cen- tem in|proe- se- * * *|* * pi-|o, in proe- *|se- * * * *|* * * * pi-|
 G8 z8 | A12 A4 | A8 B8 | (A12 G4 | A8 B8) | A4 A8 A4 | =B6 B2 c4 (G2 A2 | B2 c2 d8) B4 | %46
w: o.|O be-|a- ta|vir- *||go cu- jus|vis- ce- ra me- *|* * * ru-|
 (c4 B8 A4) | B4 B4 c4 d4 | G12 B4 | A16 | F16 | G8 A8 |[M:3/2] G8 G4 | d8 d4 | c8 c4 | G4 d8 | %56
w: e- * *|runt por- ta- re|Do- mi-|num|Je-|sum Chri-|stum Al-|le- lu-|ia, Al-|le- lu-|
 G8 B4 | A8 F4 | G6 (F2 G2 A2) | B4 A8 | G8 D4 | _E4 C8 | D8 B4 | A8 F4 | G8 G4 | G4 A8 | %66
w: ia, Al-|le- lu-|ia, Al- * *|le- lu-|ia, Al-|le- lu-|ia, Al-|le- lu-|ia, Al-|le- lu-|
[M:4/2] G4 B4 (A2 G2 F2 E2 | D4) (G2 A2 B2 c2 d2 B2 | c6 d2 _e2 d2 c2 B2 | A4 G4) A4 d4 | %70
w: ia, Al- le- * * *|* lu- * * * * *||* * ia, Al-|
 (d2 c2 B2 A2 G4) (B4 | c4 d4 _e6 d2 | c12 =B2 A2) | =B16 |] %74
w: le- * * * * lu-|||ia.|
V:4
 z16 | z16 | z16 | z16 | z16 | z16 | z16 | z16 | z16 | D,16 | G,,8 D,8- | D,4 D,4 _E,4 E,4 | %12
w: |||||||||O|ma- gnum|* my- ste- ri-|
 D,8 z4 D,4 | B,,4 C,4 D,6 D,2 | D,4 B,,4 _E,8 | D,8 G,,4 G,,4 | G,4 F,4 B,,6 B,,2 | %17
w: um et|ad- mi- ra- bi-|le sa- cra-|men- tum et|ad- mi- ra- bi-|
 B,,4 F,4 (G,4 C,4) | D,8 G,,4 G,4 | F,6 D,2 E,4 ^F,4 | G,8 z8 | z12 G,,4 | G,6 G,2 G,4 G,4 | %23
w: le sa- cra- *|men- tum, ut|a- ni- ma- li-|a,|vi-|de- rent Do- mi-|
 (F,6 G,2) A,8 | D,8 z8 | z16 | z12 D,4 | G,8 F,4 D,4 | (E,4 F,4) (G,4 F,2 E,2 | %29
w: num * na-|tum,||ja-|cen- tem in|proe- * se- * *|
 D,6 F,2 _E,4) E,4 | D,8 z8 | z4 C,4 G,8 | F,4 D,4 (E,4 F,4) | (G,4 F,2 E,2 D,6 C,2 | %34
w: * * * pi-|o,|ja- cen-|tem in proe- *|se- * * * *|
 B,,4 A,,2 G,,2 A,,4) A,,4 | G,,4 G,4 (F,4 D,4) | (C,16 | D,12) D,4 | G,,8 z8 | D,12 D,4 | %40
w: * * * * pi-|o, in proe- *|se-|* pi-|o.|O be-|
 D,8 G,,8 | (D,6 E,2 ^F,4 G,4- | G,2 ^F,2 F,4 G,8) | D,4 D,8 D,4 | G,6 G,2 C,8 | G,12 G,4 | %46
w: a- ta|vir- * * *||go cu- jus|vis- ce- ra|me- ru-|
 (F,4 B,,4 F,8) | B,,8 z8 | z16 | z8 D,8- | D,8 B,,8 | (_E,8 D,8) |[M:3/2] G,,8 z4 | z12 | z12 | %55
w: e- * *|runt||Je-|* sum|Chri- *|stum|||
 z12 | z8 G,,4 | D,8 D,4 | C,8 C,4 | G,,4 D,8 | G,,8 G,,4 | C,4 A,,8 | G,,8 G,,4 | D,8 D,4 | %64
w: |Al-|le- lu-|ia, Al-|le- lu-|ia, Al-|le- lu-|ia, Al-|le- lu-|
 C,8 C,4 | _E,4 D,8 |[M:4/2] G,,4 G,4 (F,2 E,2 D,2 C,2 | B,,2 A,,2 G,,2 F,,2 G,,8) | (C,16 | D,16 | %70
w: ia, Al-|le- lu-|ia, Al- le- * * *||lu-||
 G,,4 G,4 G,2 F,2 _E,2 D,2 | C,4 =B,,4 C,8- | C,8) G,,8- | G,,16 |] %74
w: ||* ia.||

